core/assets/icons/mobile_connection.svg

<svg width="24" height="24" viewBox="0 0 24 24" xmlns="http://www.w3.org/2000/svg"><g id="mobile-connection" clip-path="url(#clip0_427_6501)"><path id="Union" fill-rule="evenodd" clip-rule="evenodd" d="M7.71429 5.7V19.3H16.2857V5.7H7.71429ZM6.85714 4H17.1429C17.3702 4 17.5882 4.08955 17.7489 4.24896C17.9097 4.40837 18 4.62457 18 4.85V20.15C18 20.3754 17.9097 20.5916 17.7489 20.751C17.5882 20.9104 17.3702 21 17.1429 21H6.85714C6.62982 21 6.4118 20.9104 6.25105 20.751C6.09031 20.5916 6 20.3754 6 20.15V4.85C6 4.62457 6.09031 4.40837 6.25105 4.24896C6.4118 4.08955 6.62982 4 6.85714 4ZM12 16.75C12.2273 16.75 12.4453 16.8396 12.6061 16.999C12.7668 17.1584 12.8571 17.3746 12.8571 17.6C12.8571 17.8254 12.7668 18.0416 12.6061 18.201C12.4453 18.3604 12.2273 18.45 12 18.45C11.7727 18.45 11.5547 18.3604 11.3939 18.201C11.2332 18.0416 11.1429 17.8254 11.1429 17.6C11.1429 17.3746 11.2332 17.1584 11.3939 16.999C11.5547 16.8396 11.7727 16.75 12 16.75ZM0.908946 9.26717C0.314496 10.2385 -0.00024368 11.3579 0 12.4997C-0.000356697 13.6416 0.31433 14.7611 0.908786 15.7326C1.50324 16.7041 2.35397 17.4892 3.36561 18L3.91061 16.8996C3.10131 16.491 2.42071 15.863 1.94511 15.0858C1.4695 14.3087 1.21768 13.4132 1.21788 12.4997C1.21768 11.5862 1.4695 10.6907 1.94511 9.91356C2.42071 9.13642 3.10131 8.50838 3.91061 8.09982L3.36561 7C2.35406 7.51074 1.5034 8.29578 0.908946 9.26717ZM2.98101 10.5601C2.62436 11.1429 2.43555 11.8146 2.43576 12.4997C2.43555 13.1848 2.62436 13.8564 2.98101 14.4393C3.33766 15.0222 3.84806 15.4933 4.455 15.7998L5 14.6999C4.59515 14.4958 4.25464 14.1818 4.01664 13.7933C3.77865 13.4047 3.65258 12.9569 3.65258 12.5C3.65258 12.0431 3.77865 11.5953 4.01664 11.2067C4.25464 10.8182 4.59515 10.5042 5 10.3001L4.455 9.19963C3.84806 9.50611 3.33766 9.97718 2.98101 10.5601ZM24 12.5003C24.0002 13.6421 23.6855 14.7615 23.0911 15.7328C22.4966 16.7042 21.6459 17.4893 20.6344 18L20.0894 16.9002C20.8987 16.4916 21.5793 15.8636 22.0549 15.0864C22.5305 14.3093 22.7823 13.4138 22.7821 12.5003C22.7823 11.5868 22.5305 10.6913 22.0549 9.91417C21.5793 9.13704 20.8987 8.50899 20.0894 8.10043L20.6344 7C21.646 7.51078 22.4968 8.29593 23.0912 9.26743C23.6857 10.2389 24.0004 11.3584 24 12.5003ZM21.5642 12.5003C21.5644 13.1854 21.3756 13.8571 21.019 14.4399C20.6623 15.0228 20.1519 15.4939 19.545 15.8004L19 14.6999C19.4048 14.4958 19.7454 14.1818 19.9834 13.7933C20.2213 13.4047 20.3474 12.9569 20.3474 12.5C20.3474 12.0431 20.2214 11.5953 19.9834 11.2067C19.7454 10.8182 19.4048 10.5042 19 10.3001L19.545 9.20025C20.1519 9.50672 20.6623 9.9778 21.019 10.5607C21.3756 11.1436 21.5644 11.8152 21.5642 12.5003Z"/></g><defs><clipPath id="clip0_427_6501"><rect width="24" height="24"/></clipPath></defs></svg>

<svg xmlns="http://www.w3.org/2000/svg" width="24" height="24" fill="none"><g clip-path="url(#a)"><path fill="#191C22" fill-rule="evenodd" d="M7.714 5.7v13.6h8.572V5.7H7.714ZM6.857 4h10.286a.86.86 0 0 1 .606.249c.16.16.251.376.251.601v15.3c0 .225-.09.442-.251.601a.86.86 0 0 1-.606.249H6.857a.86.86 0 0 1-.606-.249A.846.846 0 0 1 6 20.15V4.85c0-.225.09-.442.251-.601A.86.86 0 0 1 6.857 4ZM12 16.75c.227 0 .445.09.606.249a.847.847 0 0 1 0 1.202.861.861 0 0 1-1.212 0 .847.847 0 0 1 0-1.202.861.861 0 0 1 .606-.249ZM.909 9.267A6.191 6.191 0 0 0 0 12.5c0 1.142.314 2.261.909 3.233A6.111 6.111 0 0 0 3.366 18l.545-1.1a4.889 4.889 0 0 1-1.966-1.814 4.953 4.953 0 0 1-.727-2.586c0-.914.252-1.81.727-2.586A4.889 4.889 0 0 1 3.911 8.1L3.366 7A6.111 6.111 0 0 0 .909 9.267ZM2.98 10.56a3.715 3.715 0 0 0 0 3.88 3.667 3.667 0 0 0 1.474 1.36L5 14.7a2.445 2.445 0 0 1-.983-.907 2.477 2.477 0 0 1 0-2.586c.238-.389.578-.703.983-.907l-.545-1.1a3.667 3.667 0 0 0-1.474 1.36ZM24 12.5a6.192 6.192 0 0 1-.909 3.233A6.112 6.112 0 0 1 20.634 18l-.545-1.1a4.889 4.889 0 0 0 1.966-1.814 4.953 4.953 0 0 0 .727-2.586c0-.913-.252-1.809-.727-2.586A4.889 4.889 0 0 0 20.089 8.1l.545-1.1a6.111 6.111 0 0 1 2.457 2.267A6.19 6.19 0 0 1 24 12.5Zm-2.436 0c0 .685-.188 1.357-.545 1.94a3.668 3.668 0 0 1-1.474 1.36L19 14.7c.405-.204.745-.518.983-.907a2.477 2.477 0 0 0 0-2.586A2.445 2.445 0 0 0 19 10.3l.545-1.1a3.667 3.667 0 0 1 1.474 1.36c.357.584.545 1.255.545 1.94Z" clip-rule="evenodd"/></g><defs><clipPath id="a"><path fill="#fff" d="M0 0h24v24H0z"/></clipPath></defs></svg>
